!!!COM: Corelli, Arcangelo
!!!OTL: 
!!!ONM: Opus 5, No. 8
!!!OMV: 1
!!!CDT: 1653/2/17/-1713/1/8/
!!!OCY: Italia
**kern	**kern
*clefC	*clefG
*k[f#]	*k[f#]
*e:	*e:
*M3/4	*M3/4
2r	2r
4r	4b
=1	=1
2r	2ee
4BB	4ff#
=2	=2
2E	2gg
4F#	4aa
=3	=3
4G	4bb
2A	8aa
.	8gg
.	8ff#
.	8ee
=4	=4
4B	2.dd#
4B	.
4A	.
=5	=5
2.G#	4.ee
.	8dd
.	8cc
.	8b
=6	=6
2A	4.cc
.	8dd
4B	4b
=7	=7
2.c	4ee
.	4.a
.	8b
=8	=8
4B	2.b
4BB	.
4C#	.
=9	=9
2.D#	4r
.	4ff#
.	4bb
=10	=10
4r	2.gg
4E	.
4D	.
=11	=11
2.C#	4r
.	4ee
.	4aa
=12	=12
4r	2.ff#
4D	.
4C	.
=13	=13
2BB	4r
.	4gg
4BB	4bb
=14	=14
2C	4ee
.	4aa
4C	4ccc
=15	=15
2D	4.ff#
.	8dd
4BB	8gg
.	8dd
=16	=16
4C	8cc
.	8b
2D	2a
=17	=17
4GG	4g
4BB	2gg
4GG	.
=18	=18
4D	4r
4F#	2ff#
4D#	.
=19	=19
4E	4r
4G	4ee
4E	8ff#
.	8gg
=20	=20
2F#	4.a#
.	8ff#
4D	8bb
.	8ff#
=21	=21
4E	8ee
.	8dd
4F#	2cc#
4FF#	.
=22	=22
2BB	2b
4r	4ff#
=23	=23
2r	4gg
.	4bb
4B	4dd#
=24	=24
4c	2ee
4e	.
4G#	4bb
=25	=25
2A	4ccc
.	4eee
4e	4gg#
=26	=26
4f	2aa
4a	.
4c#	4ee
=27	=27
4.d	4ff
.	4a
8c	.
8B	4dd
8A	.
=28	=28
4G#	4.dd
4E	.
.	8ee
4A	8cc
.	8b
=29	=29
4D	8cc
.	8dd
4E	2b
4EE	.
=30	=30
4AA	4a
8A	[2cc
8G	.
8F#	.
8E	.
=31	=31
2D#	4cc]
.	8b
.	8a
4D#	8g
.	8f#
=32	=32
4E	4g
8e	4e
8d	.
8c	[4gg
8B	.
=33	=33
2A	4gg]
.	8aa
.	8gg
4A	8ff#
.	8ee
=34	=34
2B	4dd#
.	4b
4G	[4bb
=35	=35
2c	4bb]
.	4ee
4A	[4aa
=36	=36
4D#	4aa]
4E	4gg
4AA	4ff#
=37	=37
4BB	4gg
2BB	2ff#
=38	=38
4E	4.ee
2GG#	.
.	8dd
.	8cc
.	8b
=39	=39
2AA	4cc
.	4a
4AA	8b
.	8cc
=40	=40
2BB	4.d#
.	8b
4GG	8ee
.	8b
=41	=41
4AA	8a
.	8g
2BB	2f#
=42	=42
2EE	2e
4r	4r
==	==
*-	*-
!!!RWG: This file only contains pitch and duration data.
!!!RWG: Transposing instruments are not transposed.
!!!RWG: Durations of rests and tied notes may be interpreted.
!!!RWG: Key is interpreted using the Humdrum key tool.
!!!SCA: 
!!!YOR: 
!!!AGN: violin
!!!AFT: stage1
!!!ENC: F. Bennion
!!!END: 1997/04/15
!!!AST: baroque
!!!YEC: Copyright 1994, Center for Computer Assisted Research in the Humanities
!!!YEM: Rights to all derivative electronic formats reserved.
!!!YEM: Refer to licensing agreement for further details.
!!!YEN: United States of America
!!!EED: W.B. Hewlett
!!!KEY: 3592793552
!!!EMD: Converted from MuseData to Humdrum Aug 9, 1999, by Bret Aarden using muse2kern.
!!!VTS: 1125406908
